brandFactory_export/1.Light/Copiar_1Light.svg

<?xml version="1.0" encoding="UTF-8"?>
<svg width="24px" height="24px" viewBox="0 0 24 24" version="1.1" xmlns="http://www.w3.org/2000/svg" xmlns:xlink="http://www.w3.org/1999/xlink">
    <title>1.Light/Copiar_1Light</title>
    <g id="Symbols" stroke="none" stroke-width="1" fill="none" fill-rule="evenodd">
        <g id="1.Light/Copiar_1Light" fill="#5CB615" fill-rule="nonzero">
            <path d="M22.6386555,22.1210084 C22.6386555,22.4067227 22.4067227,22.6386555 22.1176471,22.6420168 L8.39327731,22.6420168 C8.10756303,22.6420168 7.87563025,22.410084 7.87563025,22.1210084 L7.87563025,16.9478992 C7.87563025,16.8739496 7.85546218,16.8 7.82184874,16.7327731 L15.2302521,16.7327731 C16.0605042,16.7327731 16.7327731,16.0605042 16.7327731,15.2302521 L16.7327731,7.84537815 C16.7798319,7.86218487 16.8302521,7.87226891 16.8806723,7.87563025 L22.1210084,7.87563025 C22.4067227,7.87563025 22.6420168,8.10756303 22.6420168,8.39663866 L22.6420168,22.1210084 L22.6386555,22.1210084 Z M0.98487395,15.2302521 L0.98487395,1.50252101 C0.98487395,1.21680672 1.21680672,0.981512605 1.50252101,0.981512605 L15.2302521,0.981512605 C15.5159664,0.981512605 15.7512605,1.21344538 15.7512605,1.50252101 L15.7512605,15.2268908 C15.7512605,15.512605 15.5193277,15.7445378 15.2302521,15.7478992 L1.50252101,15.7478992 C1.21680672,15.7478992 0.98487395,15.5159664 0.98487395,15.2302521 Z M22.1210084,6.8907563 L16.8806723,6.8907563 C16.8302521,6.89411765 16.7798319,6.90420168 16.7327731,6.9210084 L16.7327731,1.50252101 C16.7327731,0.672268908 16.0605042,0 15.2302521,0 L1.50252101,0 C0.672268908,0 0,0.675630252 0,1.50252101 L0,15.2268908 C0,16.0571429 0.672268908,16.7294118 1.50252101,16.7294118 L6.94453782,16.7294118 C6.91092437,16.7966387 6.8907563,16.8705882 6.8907563,16.9445378 L6.8907563,22.1176471 C6.8907563,22.9478992 7.56302521,23.6201681 8.39327731,23.6201681 L22.1210084,23.6201681 C22.9512605,23.6201681 23.6235294,22.9478992 23.6235294,22.1176471 L23.6235294,8.39327731 C23.6235294,7.56302521 22.9512605,6.8907563 22.1210084,6.8907563 Z" id="Copiar_1Light"></path>
        </g>
    </g>
</svg>

<svg width="24" height="24" viewBox="0 0 24 24" xmlns="http://www.w3.org/2000/svg"><path d="M22.639 22.121a.524.524 0 01-.521.521H8.393a.519.519 0 01-.517-.521v-5.173a.485.485 0 00-.054-.215h7.408c.83 0 1.503-.672 1.503-1.503V7.845a.551.551 0 00.148.03h5.24c.286 0 .521.233.521.522V22.12h-.003zM.985 15.231V1.502a.52.52 0 01.518-.521H15.23c.286 0 .521.231.521.52v13.725a.524.524 0 01-.52.52H1.502a.518.518 0 01-.518-.517zM22.12 6.89h-5.24a.551.551 0 00-.148.03V1.503C16.733.673 16.06 0 15.23 0H1.503C.673 0 0 .676 0 1.503v13.724c0 .83.672 1.502 1.503 1.502h5.442a.485.485 0 00-.054.216v5.173c0 .83.672 1.502 1.502 1.502h13.728c.83 0 1.503-.672 1.503-1.502V8.393c0-.83-.673-1.502-1.503-1.502z" fill="#5CB615" fill-rule="nonzero"/></svg>
